X: 1
T: Miss Rowan Davies
C: Phil Cunningham
%C: harmony by John Chambers
M: 3/4
L: 1/8
R: air, waltz
K: G
V: 1 staves=2
B2A2 \
| G4D2  | D3EF2 | G6- | G2g2f2 \
| e3GG2 | d3GB2 | A6  | B4A2 |
| G4D2  | D3EF2 | G6- | G2A2B2 \
| Ec3A2 | F4G2  | G6- | G2 :|
|: G2F2 \
| E3EE2 | e3GG2 | d6- | d2B2A2 \
| G3AB2 | e2G3A | B6- | B2c2d2 |
| e4EG  | F3GAF | G6- | G2A2B2 \
| Ec3A2 | F4G2  | G6- | G2 :|
V: 2
d2c2 \
| "G"B6     | "D7"B3cd2 | "Em"e6-  | e2e2d2 \
| "C"c3ec2  | "G"B4G2   | "Am"E6   | "D7"d4c2 |
| "G"B4G2   | "D7"F3GA2 | "Em"B4c2 | d6 \
| "C"ce3-e2 | "D7"d4c2  | "G"B6-  | B2 :|
|: B2A2 \
| "C"G4G2    | "Am"c4c2 | "G"B6-    | "Bm"B2G2F2 \
| "Em"E3FG2- | "C"G2E4  | "B7"F6    | "G7"=F6 |
| "C"E2G2c2  | "D7"d4dc | "G"B2c2d2 | "Em"e4d2 \
| "Am"ce3-e2 | "D7"d4c2 | "G"B6-    | B2 :|
